svg/u1f9f6.svg

<svg viewBox="0 0 128 128" xmlns="http://www.w3.org/2000/svg">
  <g>
    <circle cx="63.13" cy="56.58" r="51.61" fill="#880E4F"/>
    <path d="M53.34,36.91c-0.12,0-0.25-0.03-0.37-0.04c-2.11-0.12-2.67-2.52-2.32-3.84 c2.16-8.27,1.09-15.62-2.45-25.01c-0.73-1.92,2.18-2.42,3.45-1.91C52.87,6.6,54,8.36,54.49,9.69c2.93,7.93,3.75,16.26,1.33,25.17 C55.5,36.06,54.54,36.94,53.34,36.91z" fill="#EC407A"/>
    <path d="M59.8,44.58c-0.22,0-0.44-0.04-0.66-0.11c-1.31-0.4-2.05-1.78-1.65-3.08 c2.78-9.2,4.81-24.24-1.63-35.54c-0.68-1.19,1.05-1.97,2.41-1.84c3.12,0.28,4.94,4.95,5.54,7.03c2.82,9.71,1.9,22.69-1.59,31.78 C61.82,43.89,60.88,44.61,59.8,44.58z" fill="#EC407A"/>
    <path d="M66.46,51.83c-1.7-0.49-2.02-2.73-1.63-4.04c7.74-25.94-0.05-41.88-0.11-42.05 c-0.48-1.28,3.72-3.03,5.79,2.16c0.3,0.75,7.21,18.1-0.58,42C69.56,51,68.24,52.35,66.46,51.83z" fill="#EC407A"/>
    <path d="M22.42,90.5c-0.72-0.85-1.62-2.2-0.48-2.96c1.89-1.27,8.38-3.33,13.57-10.37 c0.81-1.1,2.18-1.61,3.37-0.93c1.19,0.67,1.72,2.26,0.93,3.37c-6.3,8.88-13.97,11.28-14.28,11.46 C25.15,91.29,23.14,91.35,22.42,90.5z" fill="#EC407A"/>
    <path d="M26.59,94.19c-0.52-1.3,2.8-1.87,2.8-1.87c1.47-0.56,7.5-1.69,12.31-9.26 c0.73-1.15,2.19-1.6,3.37-0.92c1.19,0.68,1.6,2.19,0.92,3.37c-3.23,5.66-9.54,9.9-13.86,10.93C29.82,96.99,27.1,95.46,26.59,94.19 z" fill="#EC407A"/>
    <path d="M34.67,101.6c-1.53-0.81-1.98-2.29-1.01-2.61c5.73-1.85,11.99-6.63,15.03-11.13 c0.76-1.13,2.3-1.43,3.43-0.66c1.13,0.76,1.42,2.3,0.66,3.43c-3.57,5.38-7.21,8.1-13.15,10.68C38.5,101.8,36.1,102.36,34.67,101.6 z" fill="#EC407A"/>
    <path d="M41.99,103.81c3.75-1.72,10-5.28,13.62-11.35c0.7-1.17,2.22-1.56,3.39-0.86 c1.17,0.7,1.56,2.22,0.86,3.39c-2.92,4.9-6.98,8.77-13.17,10.95C43.68,107.01,40.75,104.39,41.99,103.81z" fill="#EC407A"/>
    <path d="M18.96,83.36c-8.33-9.82-9.8-22.64-7.66-35.34c0.49-2.92,1.56-4.74,2.62-4.73 c1.37,0.02,2.69,4.72,2.29,7.27c-1.8,11.47,1.52,22.72,8.7,31.47c0.43,0.53-0.18,2.32-1.71,2.99 C21.67,85.68,19.96,84.54,18.96,83.36z" fill="#EC407A"/>
    <path d="M25.31,77.83c-3.77-3.54-6.89-14.62-6.9-19.89c0-1.37,0.01-3.34,1.38-3.34c0,0,3.06,0.47,3.57,3.33 c0.73,4.12,3.01,13.58,6.81,18.37C31.02,77.37,27.88,80.24,25.31,77.83z" fill="#EC407A"/>
    <path d="M66.43,110.1c-4.35,0.22-11.03-0.69-13.22-3.69c-0.81-1.1,0.64-2.14,1.96-1.79 c7.96,2.15,13.47,3.4,23.64-1.54c2.06-1,4.34,0.05,3.32,1.49C80.7,106.6,74.25,109.75,66.43,110.1z" fill="#D81B60"/>
    <path d="M58.27,101.13c-0.77-1.13,1.52-3.02,2.88-2.8c2.15,0.34,3.64,0.72,5.14,0.78 c1.54,0.06,3.43-0.5,4.01-0.5c1.37,0,4.65,1.35,3.81,2.43C71.51,104.38,60.7,104.68,58.27,101.13z" fill="#D81B60"/>
    <path d="M86.48,44.57c-1.25,0.15-2.43-0.68-2.7-1.93c-0.29-1.33,0.56-2.65,1.89-2.94 c5.89-1.28,13.57-5.67,18.05-12.72c1.07-1.69,4.4,1.48,2.61,4.16c-5.38,8.09-12.43,11.84-19.61,13.39 C86.64,44.54,86.56,44.56,86.48,44.57z" fill="#EC407A"/>
    <path d="M84.77,53.52c-1.33,0.16-2.55-0.77-2.74-2.11c-0.19-1.35,0.74-2.61,2.1-2.8 c9.69-1.39,20.28-8.78,23.84-16.18c0.59-1.23,4.68,2.4,1.76,6.45c-5.21,7.21-15.43,13.27-24.89,14.62 C84.81,53.52,84.79,53.52,84.77,53.52z" fill="#EC407A"/>
    <path d="M85.66,61.38c-0.79,0.09-1.57,0.16-2.32,0.19c-1.36,0.06-2.52-1-2.58-2.37 c-0.06-1.37,1-2.53,2.37-2.57c9.91-0.42,24.32-7.08,28.79-15.37c0.65-1.2,4.79,2.2,1.27,6.66c-2.64,3.35-6.8,6.09-11.56,8.48 C96.47,59,90.67,60.79,85.66,61.38z" fill="#EC407A"/>
    <path d="M93.49,68.14c-0.7,0.08-1.35,0.12-1.93,0.1c-1.37-0.03-2.45-1.17-2.41-2.53 c0.03-1.36,1.16-2.45,2.53-2.41c4.57,0.1,16.91-4.7,22.15-12.93c0.74-1.15,3.47,3.15,0.52,6.51 C107.97,64.15,99.52,67.43,93.49,68.14z" fill="#EC407A"/>
    <path d="M74.42,58.31c-0.3,0-0.6-0.05-0.9-0.17c-1.27-0.49-1.85-1.91-1.41-3.2 c5.09-14.93,6.87-32.53,0.47-48.74c-0.5-1.27,4.38-1.44,5.67,2.35c6.08,17.94,4.25,32.46-1.53,48.18 C76.36,57.72,75.41,58.31,74.42,58.31z" fill="#EC407A"/>
    <path d="M93.08,29.81c-1.27-1.59-6.13-5.43-8.01-6.09c-1.29-0.46-1.74-4.9-0.37-4.9 c4.5-0.01,10.67,4.44,12.51,8.7C98.57,30.67,95.68,33.06,93.08,29.81z" fill="#D81B60"/>
    <path d="M99.36,25.81c-4.43-5.92-7.99-9.81-16.19-12.69c-1.89-0.67-3.68-2.99-2.53-3.73 c2.13-1.38,6.1,0.3,7.21,0.83c4.34,2.07,8.36,4.29,11.74,8.22c1.91,2.22,4.15,6.85,3.24,7.86 C101.45,27.83,99.85,26.46,99.36,25.81z" fill="#D81B60"/>
    <path d="M100.6,74.95c-0.72-1.16,3.29-2.83,3.65-7.07c0.12-1.36,4.26-2.96,4.35-1.6 c0.34,5.3-1.53,7.23-3.61,8.74C102.72,76.65,101.06,75.71,100.6,74.95z" fill="#D81B60"/>
    <path d="M108.84,78.57c-1.85-0.42-1.11-2.41-0.25-3.47c3.28-4.02,3.58-6.17,3.24-10.55 c-0.17-2.16,1.6-4.09,2.44-3.02c1.09,1.4,1.91,5.49,1.13,8.85C113.56,78.37,109.42,78.7,108.84,78.57z" fill="#D81B60"/>
    <path d="M90.09,32.14c0.3,0.39,0.59,0.81,0.71,1.28c0.13,0.48,0.07,1.03-0.25,1.4 c-0.22,0.25-0.52,0.4-0.82,0.54c-0.57,0.27-1.14,0.54-1.76,0.65c-0.62,0.11-1.29,0.04-1.8-0.32c-0.64-0.46-0.9-1.28-1.07-2.04 c-0.29-1.24-0.47-2.5-0.56-3.77c-0.02-0.3-0.03-0.63,0.11-0.9C85.5,27.38,89.51,31.41,90.09,32.14z" fill="#D81B60"/>
    <g>
      <path d="M93.08,98.12c-5.88-1.03-11.78-3.33-17.55-5.95c-1.33-0.64-2.61-1.31-3.89-1.99 c-2.12,1.2-4.4,2.17-6.78,2.89c6.31,3.53,11.55,5.44,15.39,6.58c6.57,1.96,9.26,1.6,9.82,1.52 C92.23,100.84,94.42,98.39,93.08,98.12z" fill="#EC407A"/>
      <path d="M19.25,36.29c-0.65-1.2-1.62-4.18-1.62-4.18c-1.72-0.21-3.13,2.01-2.5,5.78 c0.37,2.17,10.16,26.84,39.1,48.29c3.8,2.82,7.35,5.07,10.62,6.9c0,0,2.3,1.52,5.44-0.1c2.66-1.37,1.34-2.8,1.34-2.8 C48.28,77.88,32.29,60.24,19.25,36.29z" fill="#F06292"/>
      <path d="M99.65,92.69c-7.07-2.26-13.93-4.96-20.49-8.21c-1.33,1.4-2.79,2.67-4.36,3.81 c1.39,0.78,2.77,1.53,4.14,2.26C83.25,92.85,100.49,100.35,99.65,92.69z" fill="#EC407A"/>
      <path d="M79.15,84.48c-23.4-11.59-43.54-29.75-56.26-60.41c-3.35,0.74-3,4.67-2.52,5.95 c11.37,30.25,34.4,47.04,54.42,58.27c0,0,3.16,1.74,5.25-0.93C81.29,85.75,79.15,84.48,79.15,84.48z" fill="#F06292"/>
      <path d="M104.68,86.24c-7.41-2.11-14.32-5.04-20.73-8.5c-0.82,1.59-1.78,3.1-2.86,4.5 c5.12,2.6,10.53,4.8,16.21,6.45C104.48,90.76,106.03,86.47,104.68,86.24z" fill="#EC407A"/>
      <path d="M29.04,17.83c-0.82-1.73-4.28,0.9-3.68,3.63c3.73,13.58,20.96,44.14,55.73,60.78 c0,0,2.78,1.22,3.84-1.1c1.06-2.33-0.97-3.4-0.97-3.4C47.43,58.31,33.56,30.48,29.04,17.83z" fill="#F06292"/>
      <path d="M109.63,79.99c-8.36-3.08-15.83-6.41-22.61-10.16c-0.05,0.39-0.11,0.78-0.2,1.14 c-0.35,1.51-0.82,2.96-1.38,4.35c5.91,3.03,12.27,5.62,19.13,7.77C110.05,84.62,110.91,80.48,109.63,79.99z" fill="#EC407A"/>
      <path d="M87.02,69.83C62.3,56.24,49.81,40.71,36.04,13.9c-1.68-2.7-5.77-0.23-4.18,2.64 C44,42.87,56.96,59.21,85.44,75.33c0,0,2.18,0.85,3.02-1.69C88.99,72.04,88.49,70.63,87.02,69.83z" fill="#F06292"/>
    </g>
    <path d="M70.52,124c-2.77,0-5.58-0.07-8.39-0.23c-17.33-0.96-38.97-6.92-45.51-17.77 c-2.05-3.39-8.28-13.72,4.43-34.62c7.13-11.72,24.26-36.76,19.57-60.68c0,0-0.65-2.3,1.4-3.17c3.03-1.28,3.52,1.32,3.52,1.32 c5.99,27.91-11.91,53.31-19.4,65.62c-9.71,15.97-7.17,23.88-4.42,28.44c3.18,5.26,16.65,13.57,40.74,14.9 c30.28,1.67,48.81-5.9,50.71-8.61c0.07-1.02-0.59-2.22-11.95-2.46c-3.15-0.07-2.86-4.67-1.28-4.85c4.62-0.54,13.31-0.54,17.29,2.34 c2.01,1.46,2.85,3.61,2.06,6.11C116.92,117.83,95.83,124,70.52,124z M113.25,109.1L113.25,109.1L113.25,109.1z" fill="#FF80AB"/>
  </g>
</svg>

<svg viewBox="0 0 128 128" xmlns="http://www.w3.org/2000/svg">
  <defs/>
  <path d="M114.74,56.58 A51.61 51.61 0 1 1 11.52,56.58 A51.61 51.61 0 1 1 114.74,56.58 Z" fill="#880E4F"/>
  <path d="M53.34,36.91 C53.22,36.91 53.09,36.88 52.97,36.87 C50.86,36.75 50.3,34.35 50.65,33.03 C52.81,24.76 51.74,17.41 48.2,8.02 C47.47,6.1 50.38,5.6 51.65,6.11 C52.87,6.6 54,8.36 54.49,9.69 C57.42,17.62 58.24,25.95 55.82,34.86 C55.5,36.06 54.54,36.94 53.34,36.91 Z" fill="#EC407A"/>
  <path d="M59.8,44.58 C59.58,44.58 59.36,44.54 59.14,44.47 C57.83,44.07 57.09,42.69 57.49,41.39 C60.27,32.19 62.3,17.15 55.86,5.85 C55.18,4.66 56.91,3.88 58.27,4.01 C61.39,4.29 63.21,8.96 63.81,11.04 C66.63,20.75 65.71,33.73 62.22,42.82 C61.82,43.89 60.88,44.61 59.8,44.58 Z" fill="#EC407A"/>
  <path d="M66.46,51.83 C64.76,51.34 64.44,49.1 64.83,47.79 C72.57,21.85 64.78,5.91 64.72,5.74 C64.24,4.46 68.44,2.71 70.51,7.9 C70.81,8.65 77.72,26 69.93,49.9 C69.56,51 68.24,52.35 66.46,51.83 Z" fill="#EC407A"/>
  <path d="M22.42,90.5 C21.7,89.65 20.8,88.3 21.94,87.54 C23.83,86.27 30.32,84.21 35.51,77.17 C36.32,76.07 37.69,75.56 38.88,76.24 C40.07,76.91 40.6,78.5 39.81,79.61 C33.51,88.49 25.84,90.89 25.53,91.07 C25.15,91.29 23.14,91.35 22.42,90.5 Z" fill="#EC407A"/>
  <path d="M26.59,94.19 C26.07,92.89 29.39,92.32 29.39,92.32 C30.86,91.76 36.89,90.63 41.7,83.06 C42.43,81.91 43.89,81.46 45.07,82.14 C46.26,82.82 46.67,84.33 45.99,85.51 C42.76,91.17 36.45,95.41 32.13,96.44 C29.82,96.99 27.1,95.46 26.59,94.19 Z" fill="#EC407A"/>
  <path d="M34.67,101.6 C33.14,100.79 32.69,99.31 33.66,98.99 C39.39,97.14 45.65,92.36 48.69,87.86 C49.45,86.73 50.99,86.43 52.12,87.2 C53.25,87.96 53.54,89.5 52.78,90.63 C49.21,96.01 45.57,98.73 39.63,101.31 C38.5,101.8 36.1,102.36 34.67,101.6 Z" fill="#EC407A"/>
  <path d="M41.99,103.81 C45.74,102.09 51.99,98.53 55.61,92.46 C56.31,91.29 57.83,90.9 59,91.6 C60.17,92.3 60.56,93.82 59.86,94.99 C56.94,99.89 52.88,103.76 46.69,105.94 C43.68,107.01 40.75,104.39 41.99,103.81 Z" fill="#EC407A"/>
  <path d="M18.96,83.36 C10.63,73.54 9.16,60.72 11.3,48.02 C11.79,45.1 12.86,43.28 13.92,43.29 C15.29,43.31 16.61,48.01 16.21,50.56 C14.41,62.03 17.73,73.28 24.91,82.03 C25.34,82.56 24.73,84.35 23.2,85.02 C21.67,85.68 19.96,84.54 18.96,83.36 Z" fill="#EC407A"/>
  <path d="M25.31,77.83 C21.54,74.29 18.42,63.21 18.41,57.94 C18.41,56.57 18.42,54.6 19.79,54.6 C19.79,54.6 22.85,55.07 23.36,57.93 C24.09,62.05 26.37,71.51 30.17,76.3 C31.02,77.37 27.88,80.24 25.31,77.83 Z" fill="#EC407A"/>
  <path d="M66.43,110.1 C62.08,110.32 55.4,109.41 53.21,106.41 C52.4,105.31 53.85,104.27 55.17,104.62 C63.13,106.77 68.64,108.02 78.81,103.08 C80.87,102.08 83.15,103.13 82.13,104.57 C80.7,106.6 74.25,109.75 66.43,110.1 Z" fill="#D81B60"/>
  <path d="M58.27,101.13 C57.5,100 59.79,98.11 61.15,98.33 C63.3,98.67 64.79,99.05 66.29,99.11 C67.83,99.17 69.72,98.61 70.3,98.61 C71.67,98.61 74.95,99.96 74.11,101.04 C71.51,104.38 60.7,104.68 58.27,101.13 Z" fill="#D81B60"/>
  <path d="M86.48,44.57 C85.23,44.72 84.05,43.89 83.78,42.64 C83.49,41.31 84.34,39.99 85.67,39.7 C91.56,38.42 99.24,34.03 103.72,26.98 C104.79,25.29 108.12,28.46 106.33,31.14 C100.95,39.23 93.9,42.98 86.72,44.53 C86.64,44.54 86.56,44.56 86.48,44.57 Z" fill="#EC407A"/>
  <path d="M84.77,53.52 C83.44,53.68 82.22,52.75 82.03,51.41 C81.84,50.06 82.77,48.8 84.13,48.61 C93.82,47.22 104.41,39.83 107.97,32.43 C108.56,31.2 112.65,34.83 109.73,38.88 C104.52,46.09 94.3,52.15 84.84,53.5 C84.81,53.52 84.79,53.52 84.77,53.52 Z" fill="#EC407A"/>
  <path d="M85.66,61.38 C84.87,61.47 84.09,61.54 83.34,61.57 C81.98,61.63 80.82,60.57 80.76,59.2 C80.7,57.83 81.76,56.67 83.13,56.63 C93.04,56.21 107.45,49.55 111.92,41.26 C112.57,40.06 116.71,43.46 113.19,47.92 C110.55,51.27 106.39,54.01 101.63,56.4 C96.47,59 90.67,60.79 85.66,61.38 Z" fill="#EC407A"/>
  <path d="M93.49,68.14 C92.79,68.22 92.14,68.26 91.56,68.24 C90.19,68.21 89.11,67.07 89.15,65.71 C89.18,64.35 90.31,63.26 91.68,63.3 C96.25,63.4 108.59,58.6 113.83,50.37 C114.57,49.22 117.3,53.52 114.35,56.88 C107.97,64.15 99.52,67.43 93.49,68.14 Z" fill="#EC407A"/>
  <path d="M74.42,58.31 C74.12,58.31 73.82,58.26 73.52,58.14 C72.25,57.65 71.67,56.23 72.11,54.94 C77.2,40.01 78.98,22.41 72.58,6.2 C72.08,4.93 76.96,4.76 78.25,8.55 C84.33,26.49 82.5,41.01 76.72,56.73 C76.36,57.72 75.41,58.31 74.42,58.31 Z" fill="#EC407A"/>
  <path d="M93.08,29.81 C91.81,28.22 86.95,24.38 85.07,23.72 C83.78,23.26 83.33,18.82 84.7,18.82 C89.2,18.81 95.37,23.26 97.21,27.52 C98.57,30.67 95.68,33.06 93.08,29.81 Z" fill="#D81B60"/>
  <path d="M99.36,25.81 C94.93,19.89 91.37,16 83.17,13.12 C81.28,12.45 79.49,10.13 80.64,9.39 C82.77,8.01 86.74,9.69 87.85,10.22 C92.19,12.29 96.21,14.51 99.59,18.44 C101.5,20.66 103.74,25.29 102.83,26.3 C101.45,27.83 99.85,26.46 99.36,25.81 Z" fill="#D81B60"/>
  <path d="M100.6,74.95 C99.88,73.79 103.89,72.12 104.25,67.88 C104.37,66.52 108.51,64.92 108.6,66.28 C108.94,71.58 107.07,73.51 104.99,75.02 C102.72,76.65 101.06,75.71 100.6,74.95 Z" fill="#D81B60"/>
  <path d="M108.84,78.57 C106.99,78.15 107.73,76.16 108.59,75.1 C111.87,71.08 112.17,68.93 111.83,64.55 C111.66,62.39 113.43,60.46 114.27,61.53 C115.36,62.93 116.18,67.02 115.4,70.38 C113.56,78.37 109.42,78.7 108.84,78.57 Z" fill="#D81B60"/>
  <path d="M90.09,32.14 C90.39,32.53 90.68,32.95 90.8,33.42 C90.93,33.9 90.87,34.45 90.55,34.82 C90.33,35.07 90.03,35.22 89.73,35.36 C89.16,35.63 88.59,35.9 87.97,36.01 C87.35,36.12 86.68,36.05 86.17,35.69 C85.53,35.23 85.27,34.41 85.1,33.65 C84.81,32.41 84.63,31.15 84.54,29.88 C84.52,29.58 84.51,29.25 84.65,28.98 C85.5,27.38 89.51,31.41 90.09,32.14 Z" fill="#D81B60"/>
  <path d="M93.08,98.12 C87.2,97.09 81.3,94.79 75.53,92.17 C74.2,91.53 72.92,90.86 71.64,90.18 C69.52,91.38 67.24,92.35 64.86,93.07 C71.17,96.6 76.41,98.51 80.25,99.65 C86.82,101.61 89.51,101.25 90.07,101.17 C92.23,100.84 94.42,98.39 93.08,98.12 Z" fill="#EC407A"/>
  <path d="M19.25,36.29 C18.6,35.09 17.63,32.11 17.63,32.11 C15.91,31.9 14.5,34.12 15.13,37.89 C15.5,40.06 25.29,64.73 54.23,86.18 C58.03,89 61.58,91.25 64.85,93.08 C64.85,93.08 67.15,94.6 70.29,92.98 C72.95,91.61 71.63,90.18 71.63,90.18 C48.28,77.88 32.29,60.24 19.25,36.29 Z" fill="#F06292"/>
  <path d="M99.65,92.69 C92.58,90.43 85.72,87.73 79.16,84.48 C77.83,85.88 76.37,87.15 74.8,88.29 C76.19,89.07 77.57,89.82 78.94,90.55 C83.25,92.85 100.49,100.35 99.65,92.69 Z" fill="#EC407A"/>
  <path d="M79.15,84.48 C55.75,72.89 35.61,54.73 22.89,24.07 C19.54,24.81 19.89,28.74 20.37,30.02 C31.74,60.27 54.77,77.06 74.79,88.29 C74.79,88.29 77.95,90.03 80.04,87.36 C81.29,85.75 79.15,84.48 79.15,84.48 Z" fill="#F06292"/>
  <path d="M104.68,86.24 C97.27,84.13 90.36,81.2 83.95,77.74 C83.13,79.33 82.17,80.84 81.09,82.24 C86.21,84.84 91.62,87.04 97.3,88.69 C104.48,90.76 106.03,86.47 104.68,86.24 Z" fill="#EC407A"/>
  <path d="M29.04,17.83 C28.22,16.1 24.76,18.73 25.36,21.46 C29.09,35.04 46.32,65.6 81.09,82.24 C81.09,82.24 83.87,83.46 84.93,81.14 C85.99,78.81 83.96,77.74 83.96,77.74 C47.43,58.31 33.56,30.48 29.04,17.83 Z" fill="#F06292"/>
  <path d="M109.63,79.99 C101.27,76.91 93.8,73.58 87.02,69.83 C86.97,70.22 86.91,70.61 86.82,70.97 C86.47,72.48 86,73.93 85.44,75.32 C91.35,78.35 97.71,80.94 104.57,83.09 C110.05,84.62 110.91,80.48 109.63,79.99 Z" fill="#EC407A"/>
  <path d="M87.02,69.83 C62.3,56.24 49.81,40.71 36.04,13.9 C34.36,11.2 30.27,13.67 31.86,16.54 C44,42.87 56.96,59.21 85.44,75.33 C85.44,75.33 87.62,76.18 88.46,73.64 C88.99,72.04 88.49,70.63 87.02,69.83 Z" fill="#F06292"/>
  <path d="M70.52,124 C67.75,124 64.94,123.93 62.13,123.77 C44.8,122.81 23.16,116.85 16.62,106 C14.57,102.61 8.34,92.28 21.05,71.38 C28.18,59.66 45.31,34.62 40.62,10.7 C40.62,10.7 39.97,8.4 42.02,7.53 C45.05,6.25 45.54,8.85 45.54,8.85 C51.53,36.76 33.63,62.16 26.14,74.47 C16.43,90.44 18.97,98.35 21.72,102.91 C24.9,108.17 38.37,116.48 62.46,117.81 C92.74,119.48 111.27,111.91 113.17,109.2 C113.24,108.18 112.58,106.98 101.22,106.74 C98.07,106.67 98.36,102.07 99.94,101.89 C104.56,101.35 113.25,101.35 117.23,104.23 C119.24,105.69 120.08,107.84 119.29,110.34 C116.92,117.83 95.83,124 70.52,124 Z" fill="#FF80AB"/>
</svg>
